img/gs-dig-deeper.svg

<?xml version="1.0" encoding="UTF-8"?>
<svg width="90px" height="74px" viewBox="0 0 90 74" version="1.1" xmlns="http://www.w3.org/2000/svg" xmlns:xlink="http://www.w3.org/1999/xlink">
    <!-- Generator: Sketch 39.1 (31720) - http://www.bohemiancoding.com/sketch -->
    <title>Page 1</title>
    <desc>Created with Sketch.</desc>
    <defs></defs>
    <g id="Visual-1" stroke="none" stroke-width="1" fill="none" fill-rule="evenodd">
        <g id="02_Case-Study-GS-Compact" transform="translate(-676.000000, -3290.000000)">
            <g id="Group-46" transform="translate(0.000000, 3117.000000)">
                <g id="Page-1" transform="translate(676.000000, 173.000000)">
                    <path d="M51.0918,54.199 L4.2978,54.199 C2.7518,54.199 1.4998,52.947 1.4998,51.403 L1.4998,4.607 C1.4998,3.063 2.7518,1.811 4.2978,1.811 L51.0918,1.811 C52.6358,1.811 53.8878,3.063 53.8878,4.607 L53.8878,51.403 C53.8878,52.947 52.6358,54.199 51.0918,54.199" id="Fill-9" fill="#FFFFFF"></path>
                    <path d="M55.3886,19.7038 L52.3886,19.7038 L52.3886,4.4198 C52.3886,3.8098 51.8906,3.3118 51.2786,3.3118 L47.8286,3.3118 L47.8286,0.3118 L51.2786,0.3118 C53.5446,0.3118 55.3886,2.1558 55.3886,4.4198 L55.3886,19.7038 Z" id="Fill-11" fill="#2866DC"></path>
                    <polygon id="Fill-13" fill="#2866DC" points="38.888 3.3108 43.058 3.3108 43.058 0.3108 38.888 0.3108"></polygon>
                    <path d="M28.6708,55.6998 L4.1108,55.6998 C1.8428,55.6998 0.0008,53.8558 0.0008,51.5878 L0.0008,4.4198 C0.0008,2.1558 1.8428,0.3118 4.1108,0.3118 L36.4808,0.3118 L36.4808,3.3118 L4.1108,3.3118 C3.4988,3.3118 3.0008,3.8098 3.0008,4.4198 L3.0008,51.5878 C3.0008,52.2018 3.4988,52.6998 4.1108,52.6998 L28.6708,52.6998 L28.6708,55.6998 Z" id="Fill-15" fill="#2866DC"></path>
                    <polygon id="Fill-16" fill="#CEDAF2" points="22.696 52.7088 32.692 52.7088 32.692 1.8108 22.696 1.8108"></polygon>
                    <polygon id="Fill-17" fill="#2866DC" points="24.1972 54.1998 21.1972 54.1998 21.1972 0.3118 34.1932 0.3118 34.1932 25.6338 31.1932 25.6338 31.1932 3.3118 24.1972 3.3118"></polygon>
                    <polygon id="Fill-18" fill="#2866DC" points="4.516 9.5648 18.648 9.5648 18.648 6.5648 4.516 6.5648"></polygon>
                    <polygon id="Fill-19" fill="#2866DC" points="4.516 15.2548 13.822 15.2548 13.822 12.2548 4.516 12.2548"></polygon>
                    <polygon id="Fill-20" fill="#2866DC" points="67.8096 63.0436 61.8816 57.1156 64.0016 54.9956 69.9316 60.9216"></polygon>
                    <path d="M60.2372,53.35 C54.2332,59.354 44.4992,59.354 38.4932,53.35 C32.4892,47.346 32.4892,37.612 38.4952,31.608 C44.4992,25.602 54.2332,25.602 60.2372,31.608 C66.2412,37.612 66.2412,47.346 60.2372,53.35 M35.0552,28.17 C27.1532,36.072 27.1532,48.886 35.0552,56.788 C42.9592,64.692 55.7732,64.692 63.6752,56.788 C71.5792,48.886 71.5792,36.072 63.6752,28.168 C55.7732,20.266 42.9592,20.266 35.0552,28.17" id="Fill-21" fill="#CEDAF2"></path>
                    <path d="M49.3652,64.2154 C43.5592,64.2154 38.1012,61.9534 33.9952,57.8474 C25.5212,49.3734 25.5212,35.5854 33.9952,27.1074 C42.4692,18.6374 56.2612,18.6314 64.7372,27.1074 C67.4072,29.7814 69.3432,33.1094 70.3332,36.7354 L67.4392,37.5234 C66.5872,34.4034 64.9192,31.5334 62.6152,29.2294 C55.3092,21.9254 43.4212,21.9254 36.1172,29.2294 C28.8112,36.5354 28.8112,48.4234 36.1172,55.7274 C39.6552,59.2654 44.3592,61.2154 49.3652,61.2154 C54.3712,61.2154 59.0752,59.2654 62.6152,55.7274 C65.3172,53.0254 67.1072,49.6194 67.7932,45.8774 L70.7452,46.4214 C69.9472,50.7614 67.8692,54.7154 64.7372,57.8474 C60.6312,61.9534 55.1712,64.2154 49.3652,64.2154" id="Fill-22" fill="#2866DC"></path>
                    <path d="M57.4834,35.7916 C52.6494,30.9596 44.7814,30.9556 39.9474,35.7916 L37.8254,33.6696 C43.8294,27.6676 53.6014,27.6676 59.6054,33.6696 L57.4834,35.7916 Z" id="Fill-23" fill="#2866DC"></path>
                    <polygon id="Fill-24" fill="#CEDAF2" points="64.2966 63.0632 73.7526 72.5172 79.4046 66.8652 69.9506 57.4092"></polygon>
                    <polygon id="Fill-25" fill="#2866DC" points="72.6914 73.5788 62.1754 63.0628 69.9494 55.2868 80.4654 65.8028 78.3454 67.9248 69.9494 59.5308 66.4174 63.0628 74.8134 71.4568"></polygon>
                    <polygon id="Fill-26" fill="#2866DC" points="69.289 68.3306 67.167 66.2086 73.097 60.2806 75.217 62.4006"></polygon>
                    <path d="M57.8114,42.4786 C57.8114,47.1426 54.0294,50.9246 49.3654,50.9246 C44.7014,50.9246 40.9194,47.1426 40.9194,42.4786 C40.9194,37.8146 44.7014,34.0326 49.3654,34.0326 C54.0294,34.0326 57.8114,37.8146 57.8114,42.4786" id="Fill-27" fill="#CEDAF2"></path>
                    <path d="M49.3662,40.4088 C48.2262,40.4088 47.2962,41.3388 47.2962,42.4788 C47.2962,43.6188 48.2262,44.5468 49.3662,44.5468 C50.5062,44.5468 51.4342,43.6188 51.4342,42.4788 C51.4342,41.3388 50.5062,40.4088 49.3662,40.4088 M49.3662,47.5468 C46.5702,47.5468 44.2962,45.2748 44.2962,42.4788 C44.2962,39.6848 46.5702,37.4088 49.3662,37.4088 C52.1602,37.4088 54.4342,39.6848 54.4342,42.4788 C54.4342,45.2748 52.1602,47.5468 49.3662,47.5468" id="Fill-28" fill="#2866DC"></path>
                    <polygon id="Fill-29" fill="#2866DC" points="76.9052 43.9792 53.5892 43.9792 53.5892 40.9792 73.9012 40.9792 73.8732 15.6832 89.6492 15.6832 89.6492 18.6832 76.8772 18.6832"></polygon>
                </g>
            </g>
        </g>
    </g>
</svg>

<svg width="90" height="74" viewBox="0 0 90 74" xmlns="http://www.w3.org/2000/svg"><title>Page 1</title><g fill="none" fill-rule="evenodd"><path d="M51.092 54.199H4.298A2.797 2.797 0 0 1 1.5 51.403V4.607a2.797 2.797 0 0 1 2.798-2.796h46.794a2.796 2.796 0 0 1 2.796 2.796v46.796a2.796 2.796 0 0 1-2.796 2.796" fill="#FFF"/><path d="M55.389 19.704h-3V4.42a1.11 1.11 0 0 0-1.11-1.108h-3.45v-3h3.45a4.115 4.115 0 0 1 4.11 4.108v15.284zM38.888 3.31h4.17v-3h-4.17zM28.67 55.7H4.11A4.114 4.114 0 0 1 0 51.588V4.42A4.113 4.113 0 0 1 4.11.312h32.37v3H4.11A1.11 1.11 0 0 0 3 4.42v47.168c0 .614.499 1.112 1.11 1.112h24.56v3z" fill="#2866DC"/><path fill="#CEDAF2" d="M22.696 52.709h9.996V1.81h-9.996z"/><path fill="#2866DC" d="M24.197 54.2h-3V.312h12.996v25.322h-3V3.312h-6.996zM4.516 9.565h14.132v-3H4.516zm0 5.69h9.306v-3H4.516zM67.81 63.044l-5.928-5.928 2.12-2.12 5.93 5.926z"/><path d="M60.237 53.35c-6.004 6.004-15.738 6.004-21.744 0-6.004-6.004-6.004-15.738.002-21.742 6.004-6.006 15.738-6.006 21.742 0 6.004 6.004 6.004 15.738 0 21.742M35.055 28.17c-7.902 7.902-7.902 20.716 0 28.618 7.904 7.904 20.718 7.904 28.62 0 7.904-7.902 7.904-20.716 0-28.62-7.902-7.902-20.716-7.902-28.62.002" fill="#CEDAF2"/><path d="M49.365 64.215a21.594 21.594 0 0 1-15.37-6.368c-8.474-8.474-8.474-22.262 0-30.74 8.474-8.47 22.266-8.476 30.742 0a21.77 21.77 0 0 1 5.596 9.628l-2.894.788a18.738 18.738 0 0 0-4.824-8.294c-7.306-7.304-19.194-7.304-26.498 0-7.306 7.306-7.306 19.194 0 26.498a18.612 18.612 0 0 0 13.248 5.488c5.006 0 9.71-1.95 13.25-5.488a18.622 18.622 0 0 0 5.178-9.85l2.952.544a21.63 21.63 0 0 1-6.008 11.426 21.599 21.599 0 0 1-15.372 6.368" fill="#2866DC"/><path d="M57.483 35.792c-4.834-4.832-12.702-4.836-17.536 0l-2.122-2.122c6.004-6.002 15.776-6.002 21.78 0l-2.122 2.122z" fill="#2866DC"/><path fill="#CEDAF2" d="M64.297 63.063l9.456 9.454 5.652-5.652-9.454-9.456z"/><path fill="#2866DC" d="M72.691 73.579L62.175 63.063l7.774-7.776 10.516 10.516-2.12 2.122-8.396-8.394-3.532 3.532 8.396 8.394z"/><path fill="#2866DC" d="M69.289 68.33l-2.122-2.121 5.93-5.928 2.12 2.12z"/><path d="M57.811 42.479a8.447 8.447 0 1 1-16.893-.002 8.447 8.447 0 0 1 16.893.002" fill="#CEDAF2"/><path d="M49.366 40.409c-1.14 0-2.07.93-2.07 2.07 0 1.14.93 2.068 2.07 2.068a2.07 2.07 0 0 0 2.068-2.068c0-1.14-.928-2.07-2.068-2.07m0 7.138a5.074 5.074 0 0 1-5.07-5.068 5.077 5.077 0 0 1 5.07-5.07 5.076 5.076 0 0 1 5.068 5.07 5.073 5.073 0 0 1-5.068 5.068" fill="#2866DC"/><path fill="#2866DC" d="M76.905 43.98H53.59v-3h20.312l-.028-25.297H89.65v3H76.877z"/></g></svg>
